X: 1
T: It's Howling Outside
M: 4/4
L: 1/8
R: reel
K: Gmix
C: Greg Bannoff  Aug 29-30  2007
|:G,B,DG cFcF|BAGD ~E3 G|G,B,DG cFcF|gecA FDCA,|
G,B,DG cFcF|BAGD ~B3 d|cAFD CFAc|1ecAF G4:|2 ecAF GABd ||
eB ~B2 eg^fe|Bcdc BAGE|=FAce gbag|ecG=F Aceg |
eB ~B2 eg^fe|Bcdc BAGE|D2 (3^FED A,B,DE|FEDF Aceg|
eB ~B2 eg^fe|Bcdc BAGE|=FAce gbag|ecG=F Aceg |
eB ~B2 eg^fe|Bcdc BAGE|D2 (3^FED A,B,DE|FEFE DB,A,B,||
